img/feedback/email.svg

<svg width="16" height="12" viewBox="0 0 16 12" fill="none" xmlns="http://www.w3.org/2000/svg">
<path d="M15.6875 3.96875C14.9688 4.53125 14.0625 5.21875 10.875 7.53125C10.25 8 9.09375 9.03125 8 9.03125C6.875 9.03125 5.75 8 5.09375 7.53125C1.90625 5.21875 1 4.53125 0.28125 3.96875C0.15625 3.875 0 3.96875 0 4.125V10.5C0 11.3438 0.65625 12 1.5 12H14.5C15.3125 12 16 11.3438 16 10.5V4.125C16 3.96875 15.8125 3.875 15.6875 3.96875ZM8 8C8.71875 8.03125 9.75 7.09375 10.2812 6.71875C14.4375 3.71875 14.75 3.4375 15.6875 2.6875C15.875 2.5625 16 2.34375 16 2.09375V1.5C16 0.6875 15.3125 0 14.5 0H1.5C0.65625 0 0 0.6875 0 1.5V2.09375C0 2.34375 0.09375 2.5625 0.28125 2.6875C1.21875 3.4375 1.53125 3.71875 5.6875 6.71875C6.21875 7.09375 7.25 8.03125 8 8Z" fill="#183B56"/>
</svg>

<svg width="16" height="12" fill="none" xmlns="http://www.w3.org/2000/svg"><path d="M15.688 3.969c-.72.562-1.626 1.25-4.813 3.562C10.25 8 9.094 9.031 8 9.031c-1.125 0-2.25-1.031-2.906-1.5C1.906 5.22 1 4.531.28 3.97c-.125-.094-.281 0-.281.156V10.5c0 .844.656 1.5 1.5 1.5h13a1.5 1.5 0 001.5-1.5V4.125c0-.156-.188-.25-.313-.156zM8 8c.719.031 1.75-.906 2.281-1.281 4.156-3 4.469-3.282 5.406-4.032A.711.711 0 0016 2.095V1.5c0-.813-.688-1.5-1.5-1.5h-13A1.5 1.5 0 000 1.5v.594c0 .25.094.469.281.594.938.75 1.25 1.03 5.407 4.03C6.218 7.095 7.25 8.032 8 8z" fill="#183B56"/></svg>
